X:365
T:Bicycle Pump Polka
C:Jan-Anders Andersson
M:4/4
L:1/8
K:G
d2 BG D2 G2 | z8 | c2 AF D2 F2 | z8 | 
d2 BG D2 G2 | z8 | c2 AF D2 F2 | z8 :|| 
d2 BG DGBd | c2 AA A2 A2 | c2 AF E2 F2 | G2 B2 d4 | 
d2 BG DGBd | c2 AA A2 A2 | c2 AF E2 F2 | G2 G2 G4 :|| 

